X:195
T: Gleanntan Frolics
S: "Johnny O'Leary of Sliabh Luachra" (#192)
Z: B.Black
L: 1/8
M: 12/8
Q: 350
R: slide
K: D
ddB AFA d2B A2A|d2B AFE FBB BAB|
d2B AF/G/A d2B A2A|d2B AFE F2D D3 :|
d3 d2e f3 f2e|d2d d2e f2b afe|
d2d d2e faf gfe|d2B AFE F2D D2 z :|
